img/app-ios.svg

<svg width="132" height="44" viewBox="0 0 132 44" fill="none" xmlns="http://www.w3.org/2000/svg">
    <path d="M89.6785 21.1211V23.6413H88.0988V25.2939H89.6785V30.9094C89.6785 32.8269 90.5459 33.5939 92.7282 33.5939C93.1117 33.5939 93.4769 33.5482 93.7965 33.4935V31.859C93.5225 31.8864 93.3491 31.9047 93.0477 31.9047C92.0707 31.9047 91.6416 31.4481 91.6416 30.4072V25.2939H93.7965V23.6413H91.6416V21.1211H89.6785Z" fill="white"/>
    <path d="M99.3557 33.7309C102.259 33.7309 104.04 31.786 104.04 28.5628C104.04 25.3579 102.25 23.4039 99.3557 23.4039C96.4521 23.4039 94.6624 25.3579 94.6624 28.5628C94.6624 31.786 96.443 33.7309 99.3557 33.7309ZM99.3557 31.9869C97.6482 31.9869 96.6895 30.7359 96.6895 28.5628C96.6895 26.4079 97.6482 25.1479 99.3557 25.1479C101.054 25.1479 102.022 26.4079 102.022 28.5628C102.022 30.7268 101.054 31.9869 99.3557 31.9869Z" fill="white"/>
    <path d="M105.563 33.5391H107.526V27.668C107.526 26.2709 108.576 25.3305 110.065 25.3305C110.412 25.3305 110.996 25.3944 111.16 25.4492V23.5134C110.95 23.4586 110.576 23.4312 110.284 23.4312C108.987 23.4312 107.882 24.1435 107.599 25.1205H107.453V23.5956H105.563V33.5391Z" fill="white"/>
    <path d="M116.035 25.0748C117.487 25.0748 118.436 26.0883 118.482 27.6497H113.46C113.57 26.0975 114.583 25.0748 116.035 25.0748ZM118.473 30.8546C118.108 31.6308 117.295 32.0599 116.108 32.0599C114.537 32.0599 113.524 30.9551 113.46 29.2111V29.1015H120.482V28.4167C120.482 25.2939 118.811 23.4039 116.044 23.4039C113.241 23.4039 111.46 25.4218 111.46 28.5993C111.46 31.7769 113.204 33.7309 116.053 33.7309C118.327 33.7309 119.915 32.6352 120.363 30.8546H118.473Z" fill="white"/>
    <path d="M76.8045 29.8671C76.9559 32.3088 78.9907 33.8703 82.0191 33.8703C85.2557 33.8703 87.281 32.2331 87.281 29.6211C87.281 27.5674 86.1264 26.4317 83.3251 25.7787L81.8204 25.4096C80.0411 24.9932 79.3219 24.4349 79.3219 23.4601C79.3219 22.2298 80.4386 21.4254 82.1137 21.4254C83.7037 21.4254 84.8015 22.2109 85.0002 23.4696H87.0633C86.9403 21.1698 84.915 19.5515 82.1421 19.5515C79.161 19.5515 77.1736 21.1698 77.1736 23.602C77.1736 25.6084 78.2998 26.8008 80.7699 27.3781L82.5301 27.804C84.3377 28.2299 85.1327 28.8545 85.1327 29.8955C85.1327 31.1069 83.8835 31.987 82.18 31.987C80.3535 31.987 79.0853 31.1637 78.9055 29.8671H76.8045Z" fill="white"/>
    <path d="M56.4684 23.4312C55.1171 23.4312 53.9483 24.1069 53.3457 25.2392H53.1996V23.5956H51.3095V36.8445H53.2726V32.0325H53.4279C53.9483 33.0826 55.0714 33.7035 56.4867 33.7035C58.9977 33.7035 60.5956 31.7221 60.5956 28.5628C60.5956 25.4035 58.9977 23.4312 56.4684 23.4312ZM55.9115 31.9412C54.2679 31.9412 53.2361 30.6446 53.2361 28.5719C53.2361 26.4901 54.2679 25.1935 55.9206 25.1935C57.5824 25.1935 58.5777 26.4627 58.5777 28.5628C58.5777 30.672 57.5824 31.9412 55.9115 31.9412Z" fill="white"/>
    <path d="M67.4649 23.4312C66.1135 23.4312 64.9448 24.1069 64.3422 25.2392H64.1961V23.5956H62.306V36.8445H64.2691V32.0325H64.4243C64.9448 33.0826 66.0679 33.7035 67.4832 33.7035C69.9942 33.7035 71.5921 31.7221 71.5921 28.5628C71.5921 25.4035 69.9942 23.4312 67.4649 23.4312ZM66.9079 31.9412C65.2644 31.9412 64.2326 30.6446 64.2326 28.5719C64.2326 26.4901 65.2644 25.1935 66.9171 25.1935C68.5789 25.1935 69.5741 26.4627 69.5741 28.5628C69.5741 30.672 68.5789 31.9412 66.9079 31.9412Z" fill="white"/>
    <path d="M47.7873 33.5391H50.0397L45.109 19.8827H42.8282L37.8976 33.5391H40.0742L41.3329 29.9144H46.5381L47.7873 33.5391ZM43.8598 22.3623H44.0207L45.9986 28.1352H41.8724L43.8598 22.3623Z" fill="white"/>
    <path d="M39.2163 9.58196V16.1699H41.5948C43.558 16.1699 44.6948 14.96 44.6948 12.8554C44.6948 10.7827 43.5489 9.58196 41.5948 9.58196H39.2163ZM40.2389 10.5133H41.4807C42.8458 10.5133 43.6539 11.3807 43.6539 12.8691C43.6539 14.3802 42.8595 15.2385 41.4807 15.2385H40.2389V10.5133Z" fill="white"/>
    <path d="M48.1764 16.2657C49.6282 16.2657 50.5184 15.2933 50.5184 13.6817C50.5184 12.0792 49.6236 11.1022 48.1764 11.1022C46.7246 11.1022 45.8297 12.0792 45.8297 13.6817C45.8297 15.2933 46.72 16.2657 48.1764 16.2657ZM48.1764 15.3937C47.3226 15.3937 46.8433 14.7683 46.8433 13.6817C46.8433 12.6043 47.3226 11.9742 48.1764 11.9742C49.0255 11.9742 49.5095 12.6043 49.5095 13.6817C49.5095 14.7637 49.0255 15.3937 48.1764 15.3937Z" fill="white"/>
    <path d="M58.0998 11.1981H57.1182L56.2325 14.992H56.1549L55.1323 11.1981H54.1918L53.1691 14.992H53.0961L52.2058 11.1981H51.2106L52.5802 16.1699H53.5891L54.6118 12.5084H54.6894L55.7166 16.1699H56.7347L58.0998 11.1981Z" fill="white"/>
    <path d="M59.2302 16.1699H60.2118V13.2617C60.2118 12.4856 60.6729 12.0016 61.3988 12.0016C62.1247 12.0016 62.4716 12.3988 62.4716 13.1978V16.1699H63.4532V12.9512C63.4532 11.7688 62.8414 11.1022 61.732 11.1022C60.9833 11.1022 60.4902 11.4355 60.2483 11.9879H60.1752V11.1981H59.2302V16.1699Z" fill="white"/>
    <path d="M64.9991 16.1699H65.9806V9.25781H64.9991V16.1699Z" fill="white"/>
    <path d="M69.6722 16.2657C71.1241 16.2657 72.0143 15.2933 72.0143 13.6817C72.0143 12.0792 71.1195 11.1022 69.6722 11.1022C68.2204 11.1022 67.3256 12.0792 67.3256 13.6817C67.3256 15.2933 68.2159 16.2657 69.6722 16.2657ZM69.6722 15.3937C68.8185 15.3937 68.3391 14.7683 68.3391 13.6817C68.3391 12.6043 68.8185 11.9742 69.6722 11.9742C70.5214 11.9742 71.0054 12.6043 71.0054 13.6817C71.0054 14.7637 70.5214 15.3937 69.6722 15.3937Z" fill="white"/>
    <path d="M74.9389 15.4257C74.4048 15.4257 74.0167 15.1655 74.0167 14.7181C74.0167 14.2798 74.3272 14.0469 75.012 14.0013L76.2264 13.9237V14.3391C76.2264 14.9555 75.6785 15.4257 74.9389 15.4257ZM74.6878 16.2521C75.3407 16.2521 75.884 15.969 76.1807 15.4714H76.2583V16.1699H77.2034V12.7732C77.2034 11.7231 76.5003 11.1022 75.2539 11.1022C74.1263 11.1022 73.3228 11.6501 73.2223 12.5038H74.1719C74.2815 12.1523 74.6604 11.9514 75.2083 11.9514C75.8794 11.9514 76.2264 12.2482 76.2264 12.7732V13.2023L74.8796 13.28C73.6971 13.353 73.0306 13.8689 73.0306 14.7637C73.0306 15.6722 73.7291 16.2521 74.6878 16.2521Z" fill="white"/>
    <path d="M80.5343 16.2521C81.2191 16.2521 81.7989 15.9279 82.0957 15.3846H82.1733V16.1699H83.1138V9.25781H82.1322V11.9879H82.0592C81.7898 11.4401 81.2146 11.1159 80.5343 11.1159C79.2788 11.1159 78.4707 12.1112 78.4707 13.6817C78.4707 15.2568 79.2697 16.2521 80.5343 16.2521ZM80.8128 11.9971C81.6346 11.9971 82.1505 12.6499 82.1505 13.6863C82.1505 14.7272 81.6391 15.3709 80.8128 15.3709C79.9819 15.3709 79.4843 14.7363 79.4843 13.6817C79.4843 12.6362 79.9865 11.9971 80.8128 11.9971Z" fill="white"/>
    <path d="M89.4789 16.2657C90.9307 16.2657 91.821 15.2933 91.821 13.6817C91.821 12.0792 90.9261 11.1022 89.4789 11.1022C88.0271 11.1022 87.1323 12.0792 87.1323 13.6817C87.1323 15.2933 88.0225 16.2657 89.4789 16.2657ZM89.4789 15.3937C88.6252 15.3937 88.1458 14.7683 88.1458 13.6817C88.1458 12.6043 88.6252 11.9742 89.4789 11.9742C90.3281 11.9742 90.812 12.6043 90.812 13.6817C90.812 14.7637 90.3281 15.3937 89.4789 15.3937Z" fill="white"/>
    <path d="M93.1203 16.1699H94.1019V13.2617C94.1019 12.4856 94.563 12.0016 95.2889 12.0016C96.0148 12.0016 96.3618 12.3988 96.3618 13.1978V16.1699H97.3433V12.9512C97.3433 11.7688 96.7315 11.1022 95.6222 11.1022C94.8734 11.1022 94.3804 11.4355 94.1384 11.9879H94.0653V11.1981H93.1203V16.1699Z" fill="white"/>
    <path d="M101.864 9.96089V11.2209H101.074V12.0473H101.864V14.855C101.864 15.8138 102.298 16.1973 103.389 16.1973C103.581 16.1973 103.763 16.1744 103.923 16.147V15.3298C103.786 15.3435 103.699 15.3527 103.549 15.3527C103.06 15.3527 102.846 15.1244 102.846 14.6039V12.0473H103.923V11.2209H102.846V9.96089H101.864Z" fill="white"/>
    <path d="M105.241 16.1699H106.222V13.2663C106.222 12.513 106.67 12.0062 107.473 12.0062C108.167 12.0062 108.537 12.408 108.537 13.2023V16.1699H109.518V12.9604C109.518 11.7779 108.866 11.1068 107.806 11.1068C107.058 11.1068 106.533 11.4401 106.291 11.9971H106.213V9.25781H105.241V16.1699Z" fill="white"/>
    <path d="M113.059 11.9377C113.785 11.9377 114.26 12.4445 114.283 13.2252H111.772C111.827 12.449 112.333 11.9377 113.059 11.9377ZM114.278 14.8276C114.096 15.2157 113.689 15.4303 113.096 15.4303C112.311 15.4303 111.804 14.8779 111.772 14.0059V13.9511H115.283V13.6087C115.283 12.0473 114.447 11.1022 113.064 11.1022C111.662 11.1022 110.772 12.1112 110.772 13.7C110.772 15.2887 111.644 16.2657 113.068 16.2657C114.205 16.2657 115 15.7179 115.223 14.8276H114.278Z" fill="white"/>
    <path d="M27.2459 22.3309C27.2697 20.4818 28.2628 18.7322 29.8381 17.7637C28.8443 16.3443 27.1797 15.4444 25.4478 15.3902C23.6007 15.1963 21.8099 16.4955 20.8686 16.4955C19.9091 16.4955 18.4599 15.4095 16.8993 15.4416C14.8651 15.5073 12.9688 16.6638 11.9791 18.4422C9.85168 22.1255 11.4385 27.5386 13.4764 30.5159C14.496 31.9738 15.6876 33.6023 17.2468 33.5445C18.7726 33.4813 19.3424 32.5716 21.1841 32.5716C23.0088 32.5716 23.5434 33.5445 25.1342 33.5078C26.7715 33.4813 27.803 32.0435 28.7868 30.5718C29.5194 29.533 30.0831 28.3849 30.4571 27.17C28.533 26.3562 27.2481 24.42 27.2459 22.3309Z" fill="white"/>
    <path d="M24.2411 13.4322C25.1337 12.3606 25.5735 10.9832 25.467 9.59253C24.1032 9.73577 22.8434 10.3876 21.9387 11.4181C21.054 12.425 20.5936 13.7781 20.6806 15.1156C22.0449 15.1297 23.3861 14.4955 24.2411 13.4322Z" fill="white"/>
    <rect x="0.5" y="0.5" width="131" height="43" rx="6.5" stroke="white"/>
</svg>

<svg width="132" height="44" fill="none" xmlns="http://www.w3.org/2000/svg"><path d="M89.678 21.121v2.52h-1.58v1.653h1.58v5.615c0 1.918.868 2.685 3.05 2.685a6.35 6.35 0 001.069-.1v-1.635c-.275.027-.448.046-.75.046-.976 0-1.405-.457-1.405-1.498v-5.113h2.154V23.64h-2.154v-2.52h-1.963zm9.678 12.609c2.903 0 4.684-1.944 4.684-5.167 0-3.205-1.79-5.16-4.684-5.16-2.904 0-4.694 1.955-4.694 5.16 0 3.223 1.781 5.168 4.694 5.168zm0-1.743c-1.708 0-2.666-1.251-2.666-3.424 0-2.155.958-3.415 2.666-3.415 1.698 0 2.666 1.26 2.666 3.415 0 2.164-.968 3.424-2.666 3.424zm6.207 1.553h1.963v-5.872c0-1.397 1.05-2.337 2.539-2.337.347 0 .931.063 1.095.118v-1.936c-.21-.054-.584-.082-.876-.082-1.297 0-2.402.712-2.685 1.69h-.146v-1.525h-1.89v9.943zm10.472-8.465c1.452 0 2.401 1.013 2.447 2.575h-5.022c.11-1.552 1.123-2.575 2.575-2.575zm2.438 5.78c-.365.776-1.178 1.205-2.365 1.205-1.571 0-2.584-1.105-2.648-2.849v-.11h7.022v-.684c0-3.123-1.671-5.013-4.438-5.013-2.803 0-4.584 2.018-4.584 5.195 0 3.178 1.744 5.132 4.593 5.132 2.274 0 3.862-1.096 4.31-2.876h-1.89zm-41.668-.988c.15 2.442 2.186 4.003 5.214 4.003 3.237 0 5.262-1.637 5.262-4.249 0-2.054-1.155-3.19-3.956-3.842l-1.505-.37c-1.779-.416-2.498-.974-2.498-1.949 0-1.23 1.117-2.035 2.792-2.035 1.59 0 2.688.786 2.886 2.045h2.063c-.123-2.3-2.148-3.918-4.92-3.918-2.982 0-4.97 1.618-4.97 4.05 0 2.006 1.127 3.199 3.597 3.776l1.76.426c1.808.426 2.603 1.05 2.603 2.091 0 1.212-1.25 2.092-2.953 2.092-1.827 0-3.095-.823-3.275-2.12h-2.1zm-20.337-6.436c-1.35 0-2.52.676-3.122 1.808H53.2v-1.643h-1.89v13.248h1.963v-4.812h.155c.52 1.05 1.643 1.672 3.059 1.672 2.51 0 4.109-1.982 4.109-5.141 0-3.16-1.598-5.132-4.128-5.132zm-.557 8.51c-1.643 0-2.675-1.296-2.675-3.37 0-2.08 1.032-3.378 2.685-3.378 1.661 0 2.657 1.27 2.657 3.37 0 2.109-.996 3.378-2.667 3.378zm11.554-8.51c-1.352 0-2.52.676-3.123 1.808h-.146v-1.643h-1.89v13.248h1.963v-4.812h.155c.52 1.05 1.644 1.672 3.06 1.672 2.51 0 4.108-1.982 4.108-5.141 0-3.16-1.598-5.132-4.127-5.132zm-.557 8.51c-1.644 0-2.675-1.296-2.675-3.37 0-2.08 1.031-3.378 2.684-3.378 1.662 0 2.657 1.27 2.657 3.37 0 2.109-.995 3.378-2.666 3.378zM47.787 33.54h2.253l-4.931-13.657h-2.28l-4.931 13.656h2.176l1.259-3.625h5.205l1.25 3.625zM43.86 22.361h.16L46 28.135h-4.127l1.988-5.773zM39.216 9.582v6.588h2.379c1.963 0 3.1-1.21 3.1-3.315 0-2.072-1.146-3.273-3.1-3.273h-2.379zm1.023.931h1.242c1.365 0 2.173.868 2.173 2.356 0 1.511-.795 2.37-2.173 2.37h-1.242v-4.726zm7.937 5.753c1.452 0 2.342-.973 2.342-2.584 0-1.603-.894-2.58-2.342-2.58-1.451 0-2.346.977-2.346 2.58 0 1.611.89 2.584 2.346 2.584zm0-.872c-.853 0-1.333-.626-1.333-1.712 0-1.078.48-1.708 1.333-1.708.85 0 1.334.63 1.334 1.708 0 1.082-.484 1.712-1.334 1.712zm9.924-4.196h-.982l-.886 3.794h-.077l-1.023-3.794h-.94l-1.023 3.794h-.073l-.89-3.794h-.995l1.37 4.972h1.008l1.023-3.662h.077l1.028 3.662h1.018l1.365-4.972zm1.13 4.972h.982v-2.908c0-.776.46-1.26 1.187-1.26.726 0 1.073.397 1.073 1.196v2.972h.981v-3.22c0-1.182-.612-1.849-1.721-1.849-.749 0-1.242.333-1.484.886h-.073v-.79h-.945v4.972zm5.77 0h.98V9.258H65v6.912zm4.672.096c1.452 0 2.342-.973 2.342-2.584 0-1.603-.894-2.58-2.342-2.58-1.452 0-2.346.977-2.346 2.58 0 1.611.89 2.584 2.346 2.584zm0-.872c-.853 0-1.333-.626-1.333-1.712 0-1.078.48-1.708 1.333-1.708.85 0 1.333.63 1.333 1.708 0 1.082-.484 1.712-1.333 1.712zm5.267.032c-.534 0-.922-.26-.922-.708 0-.438.31-.671.995-.717l1.214-.077v.415c0 .617-.547 1.087-1.287 1.087zm-.251.826c.653 0 1.196-.283 1.493-.78h.077v.698h.945v-3.397c0-1.05-.703-1.67-1.95-1.67-1.127 0-1.93.547-2.03 1.4h.949c.11-.35.488-.552 1.036-.552.671 0 1.018.297 1.018.822v.43l-1.346.077c-1.183.073-1.85.589-1.85 1.484 0 .908.7 1.488 1.658 1.488zm5.846 0c.685 0 1.265-.324 1.562-.867h.077v.785h.94V9.258h-.98v2.73h-.074c-.27-.548-.844-.872-1.525-.872-1.255 0-2.063.995-2.063 2.566 0 1.575.799 2.57 2.063 2.57zm.279-4.255c.822 0 1.337.653 1.337 1.69 0 1.04-.51 1.684-1.337 1.684-.831 0-1.329-.635-1.329-1.69 0-1.045.503-1.684 1.329-1.684zm8.666 4.269c1.452 0 2.342-.973 2.342-2.584 0-1.603-.895-2.58-2.342-2.58-1.452 0-2.347.977-2.347 2.58 0 1.611.89 2.584 2.347 2.584zm0-.872c-.854 0-1.333-.626-1.333-1.712 0-1.078.48-1.708 1.333-1.708.85 0 1.333.63 1.333 1.708 0 1.082-.484 1.712-1.333 1.712zm3.641.776h.982v-2.908c0-.776.461-1.26 1.187-1.26s1.073.397 1.073 1.196v2.972h.981v-3.22c0-1.182-.612-1.849-1.72-1.849-.75 0-1.243.333-1.485.886h-.073v-.79h-.945v4.972zm8.744-6.21v1.26h-.79v.827h.79v2.808c0 .959.434 1.342 1.525 1.342.192 0 .374-.023.534-.05v-.817c-.137.014-.224.023-.374.023-.489 0-.703-.229-.703-.75v-2.556h1.077v-.826h-1.077V9.96h-.982zm3.377 6.21h.981v-2.904c0-.753.448-1.26 1.251-1.26.694 0 1.064.402 1.064 1.196v2.968h.981v-3.21c0-1.182-.652-1.853-1.712-1.853-.748 0-1.273.333-1.515.89h-.078v-2.74h-.972v6.913zm7.818-4.232c.726 0 1.201.506 1.224 1.287h-2.511c.055-.776.561-1.287 1.287-1.287zm1.219 2.89c-.182.388-.589.602-1.182.602-.785 0-1.292-.552-1.324-1.424v-.055h3.511v-.342c0-1.562-.836-2.507-2.219-2.507-1.402 0-2.292 1.01-2.292 2.598 0 1.589.872 2.566 2.296 2.566 1.137 0 1.932-.548 2.155-1.438h-.945zM27.246 22.33a5.488 5.488 0 012.592-4.566 5.64 5.64 0 00-4.39-2.374c-1.847-.194-3.638 1.105-4.58 1.105-.959 0-2.408-1.086-3.969-1.053a5.895 5.895 0 00-4.92 3c-2.127 3.683-.54 9.097 1.497 12.074 1.02 1.458 2.212 3.086 3.77 3.029 1.527-.064 2.096-.973 3.938-.973 1.825 0 2.36.972 3.95.936 1.637-.027 2.669-1.465 3.653-2.936a12.058 12.058 0 001.67-3.402 5.307 5.307 0 01-3.211-4.84zm-3.005-8.898a5.36 5.36 0 001.226-3.84 5.453 5.453 0 00-3.528 1.826 5.146 5.146 0 00-1.258 3.698 4.562 4.562 0 003.56-1.684z" fill="#fff"/><rect x=".5" y=".5" width="131" height="43" rx="6.5" stroke="#fff"/></svg>
